X:18007
T:Road to Lisdoonvarna, The
T:Lisdoonvarna
R:Jig
C:Trad.
O:Ireland
M:6/8
L:1/8
Q:1/8=240
K:EDor
"Em"E2B B2A|"(Bm)"B2c d2D/E/|"D"F2A ABA|D2E FED|
"Em"E2B B2A|"(Bm)"B2c d3|"A"cdc B2A|"Em"B2E E3:|
|:"Em"e2f gfe|"Bm"d2B Bcd|"A"c2A ABc|"Bm"d2B Bcd|
"Em"e2f gfe|"Bm"d2B Bcd|"A"cdc B2A|"Em"B2E E3:|

